Sources/Octicons.swift/Resources/Media.xcassets/bell-16.imageset/bell-16.svg

<svg xmlns="http://www.w3.org/2000/svg" viewBox="0 0 16 16" width="16" height="16">  <path d="M8 16C9.02008 16 9.86178 15.2363 9.98459 14.2495C10.0016 14.1125 9.88807 14 9.75 14H6.25C6.11193 14 5.99836 14.1125 6.01541 14.2495C6.13822 15.2363 6.97992 16 8 16Z"></path>
  <path fill-rule="evenodd" clip-rule="evenodd" d="M8 1.5C6.067 1.5 4.5 3.067 4.5 5V7.94722C4.5 8.29272 4.39773 8.63048 4.20609 8.91795L2.50295 11.4726C2.50103 11.4755 2.5 11.4789 2.5 11.4824C2.5 11.4862 2.50063 11.488 2.50107 11.489C2.50174 11.4906 2.50302 11.4927 2.50515 11.4948C2.50729 11.497 2.50941 11.4983 2.51097 11.4989C2.51204 11.4994 2.51378 11.5 2.51759 11.5H13.4824C13.4862 11.5 13.488 11.4994 13.489 11.4989C13.4906 11.4983 13.4927 11.497 13.4948 11.4948C13.497 11.4927 13.4983 11.4906 13.4989 11.489C13.4994 11.488 13.5 11.4862 13.5 11.4824C13.5 11.4789 13.499 11.4755 13.497 11.4726L11.7939 8.91795C11.6023 8.63048 11.5 8.29272 11.5 7.94722V5C11.5 3.067 9.933 1.5 8 1.5ZM3 5C3 2.23858 5.23858 0 8 0C10.7614 0 13 2.23858 13 5V7.94722C13 7.99658 13.0146 8.04483 13.042 8.0859L14.7451 10.6406C14.9113 10.8899 15 11.1828 15 11.4824C15 12.3206 14.3206 13 13.4824 13H2.51759C1.67945 13 1 12.3206 1 11.4824C1 11.1828 1.08868 10.8899 1.25488 10.6406L2.95801 8.0859C2.98539 8.04483 3 7.99658 3 7.94722V5Z"></path></svg>

<svg xmlns="http://www.w3.org/2000/svg" width="16" height="16" viewBox="0 0 16 16"><path d="M8 16a2 2 0 0 0 1.985-1.75c.017-.137-.097-.25-.235-.25h-3.5c-.138 0-.252.113-.235.25A2 2 0 0 0 8 16ZM3 5a5 5 0 0 1 10 0v2.947c0 .05.015.098.042.139l1.703 2.555A1.519 1.519 0 0 1 13.482 13H2.518a1.516 1.516 0 0 1-1.263-2.36l1.703-2.554A.255.255 0 0 0 3 7.947Zm5-3.5A3.5 3.5 0 0 0 4.5 5v2.947c0 .346-.102.683-.294.97l-1.703 2.556a.017.017 0 0 0-.003.01l.001.006c0 .002.002.004.004.006l.006.004.007.001h10.964l.007-.001.006-.004.004-.006.001-.007a.017.017 0 0 0-.003-.01l-1.703-2.554a1.745 1.745 0 0 1-.294-.97V5A3.5 3.5 0 0 0 8 1.5Z"/></svg>
